X:1
T:Gaelic Gavotte
C:Michael McGoldrick
S:Michael McGoldrick: Wired
Z:robin.beech@mcgill.ca
R:gavotte
M:4/4
L:1/8
K:D
Aeef dcdc | AGFA EBAG | Aeef dcdc | AGFA d2d2 ::
d2AB defd | gfed (3efga2 | gfed (3efg ag | fedB A2A2 ::
Aeef dfe2- | edef gfed | Aeef dfe2- | edBA d2 d2 ::
a2fa gfed | (3efg af gfed | (3efg af gfef | edBG A2A2 :|
